;FLAVOR:Marlin
;TIME:5972
;Filament used: 6.31277m
;Layer height: 0.28
;MINX:29.36
;MINY:28.716
;MINZ:0.336
;MAXX:191.378
;MAXY:191.397
;MAXZ:9.026
;Generated with Cura_SteamEngine 4.8.0
M140 S70
M105
M190 S70
M104 S215
M105
M109 S215
M82 ;absolute extrusion mode
; Ender 3 Custom Start G-code
G92 E0 ; Reset Extruder
G28 ; Home all axes
G1 Z2.0 F3000 ; Move Z Axis up little to prevent scratching of Heat Bed
G1 X0.1 Y20 Z0.3 F5000.0 ; Move to start position
G1 X0.1 Y200.0 Z0.3 F1500.0 E15 ; Draw the first line
G1 X0.4 Y200.0 Z0.3 F5000.0 ; Move to side a little
G1 X0.4 Y20 Z0.3 F1500.0 E30 ; Draw the second line
G92 E0 ; Reset Extruder
G1 Z2.0 F3000 ; Move Z Axis up little to prevent scratching of Heat Bed
G1 X5 Y20 Z0.3 F5000.0 ; Move over to prevent blob squish
G92 E0
G92 E0
G1 F1500 E-6.5
;LAYER_COUNT:27
;LAYER:-6
M107
G0 F9000 X30.108 Y173.391 Z0.336
;TYPE:SUPPORT-INTERFACE
G1 F1500 E0
G1 F1125 X173.404 Y30.094 E22.64717
G1 X173.539 Y29.972 E22.6675
G1 X173.635 Y29.893 E22.68139
G1 X173.78 Y29.789 E22.70134
G1 X173.907 Y29.723 E22.71733
G1 X174.061 Y29.654 E22.73619
G1 X174.199 Y29.614 E22.75225
G1 X174.385 Y29.572 E22.77356
G1 X174.514 Y29.56 E22.78803
G1 X174.685 Y29.552 E22.80717
G1 X174.883 Y29.562 E22.82932
G1 X174.967 Y29.57 E22.83875
G1 X175.149 Y29.6 E22.85936
G1 X175.259 Y29.633 E22.8722
G1 X175.46 Y29.71 E22.89625
G1 X175.571 Y29.771 E22.91041
G1 X175.731 Y29.872 E22.93155
G1 X175.838 Y29.962 E22.94718
G1 X175.997 Y30.107 E22.97123
G1 X181.919 Y36.029 E23.90716
G1 X182.041 Y36.165 E23.92758
G1 X182.116 Y36.255 E23.94067
G1 X182.337 Y36.564 E23.98313
G1 X182.761 Y37.084 E24.05811
G1 X183.258 Y37.554 E24.13455
G1 X183.823 Y37.966 E24.2127
G1 X183.935 Y38.059 E24.22897
G1 X184.094 Y38.204 E24.25302
G1 X187.245 Y41.355 E24.75101
G1 X187.368 Y41.491 E24.77151
G1 X187.798 Y42.017 E24.84743
G1 X187.803 Y42.013 E24.84815
G1 X188.283 Y42.471 E24.92229
G1 X188.573 Y42.694 E24.96317
G1 X188.703 Y42.814 E24.98294
G1 X189.799 Y43.91 E25.15616
G1 X189.921 Y44.045 E25.17649
G1 X190 Y44.141 E25.19039
G1 X190.101 Y44.282 E25.20977
G1 X190.175 Y44.423 E25.22757
G1 X190.242 Y44.575 E25.24613
G1 X190.277 Y44.692 E25.25978
G1 X190.321 Y44.889 E25.28234
G1 X190.333 Y45.02 E25.29704
G1 X190.342 Y45.201 E25.31729
G1 X190.333 Y45.37 E25.3362
G1 X190.323 Y45.472 E25.34766
G1 X190.291 Y45.662 E25.36919
G1 X190.261 Y45.76 E25.38064
G1 X190.183 Y45.964 E25.40505
G1 X190.122 Y46.076 E25.4193
G1 X190.021 Y46.236 E25.44045
G1 X189.931 Y46.343 E25.45607
G1 X189.786 Y46.502 E25.48012
G1 X46.493 Y189.797 E48.12689
G1 X46.356 Y189.921 E48.14754
G1 X46.259 Y190.001 E48.16159
G1 X46.114 Y190.104 E48.18147
G1 X45.987 Y190.171 E48.19752
G1 X45.833 Y190.24 E48.21638
G1 X45.695 Y190.28 E48.23243
G1 X45.509 Y190.322 E48.25374
G1 X45.38 Y190.334 E48.26822
G1 X45.2 Y190.343 E48.28836
G1 X45.031 Y190.334 E48.30727
G1 X44.929 Y190.324 E48.31873
G1 X44.747 Y190.294 E48.33934
G1 X44.637 Y190.261 E48.35218
G1 X44.434 Y190.183 E48.37648
G1 X44.331 Y190.127 E48.38958
G1 X44.165 Y190.022 E48.41153
G1 X44.058 Y189.932 E48.42716
G1 X43.899 Y189.787 E48.45121
G1 X42.825 Y188.713 E48.62094
G1 X42.702 Y188.577 E48.64144
G1 X42.267 Y188.045 E48.71823
G1 X42.255 Y188.055 E48.71998
G1 X42.206 Y187.998 E48.72838
G1 X41.668 Y187.514 E48.80925
G1 X41.5 Y187.377 E48.83348
G1 X41.341 Y187.231 E48.8576
G1 X38.205 Y184.094 E49.35331
G1 X38.062 Y183.936 E49.37712
G1 X37.992 Y183.85 E49.38952
G1 X37.768 Y183.537 E49.43253
G1 X37.345 Y183.018 E49.50735
G1 X36.853 Y182.551 E49.58316
G1 X36.526 Y182.298 E49.62937
G1 X36.147 Y182.028 E49.68137
G1 X36.037 Y181.926 E49.69813
G1 X30.095 Y175.984 E50.63723
G1 X29.973 Y175.849 E50.65757
G1 X29.895 Y175.753 E50.67139
G1 X29.79 Y175.607 E50.69149
G1 X29.724 Y175.481 E50.70738
G1 X29.655 Y175.326 E50.72634
G1 X29.613 Y175.184 E50.74289
G1 X29.573 Y175.003 E50.76361
G1 X29.561 Y174.874 E50.77809
G1 X29.553 Y174.702 E50.79733
G1 X29.563 Y174.502 E50.81971
G1 X29.57 Y174.427 E50.82813
G1 X29.601 Y174.242 E50.84909
G1 X29.634 Y174.13 E50.86214
G1 X29.71 Y173.931 E50.88594
G1 X29.781 Y173.802 E50.9024
G1 X29.873 Y173.657 E50.92159
G1 X29.963 Y173.55 E50.93721
G1 X30.108 Y173.391 E50.96126
G0 F9000 X30.4 Y173.098
G1 F1125 X30.4 Y176.289 E51.31787
G0 F9000 X32 Y177.889
G1 F1125 X32 Y171.498 E52.03209
G0 F9000 X33.6 Y169.898
G1 F1125 X33.6 Y179.489 E53.10392
G0 F9000 X35.2 Y181.089
G1 F1125 X35.2 Y168.298 E54.53337
G0 F9000 X36.8 Y166.698
G1 F1125 X36.8 Y182.509 E56.30031
G0 F9000 X38.4 Y184.289
G1 F1125 X38.4 Y165.098 E58.44498
G0 F9000 X40 Y163.498
G1 F1125 X40 Y185.889 E60.94727
G0 F9000 X41.6 Y187.458
G1 F1125 X41.6 Y161.898 E63.8037
G0 F9000 X43.2 Y160.298
G1 F1125 X43.2 Y189.088 E67.0211
G0 F9000 X44.8 Y190.302
G1 F1125 X44.8 Y158.698 E70.55298
G0 F9000 X46.4 Y157.098
G1 F1125 X46.4 Y189.882 E74.21672
G0 F9000 X48 Y188.29
G1 F1125 X48 Y155.498 E77.88136
G0 F9000 X49.6 Y153.898
G1 F1125 X49.6 Y186.69 E81.546
G0 F9000 X51.2 Y185.09
G1 F1125 X51.2 Y152.298 E85.21064
G0 F9000 X52.8 Y150.698
G1 F1125 X52.8 Y183.49 E88.87528
G0 F9000 X54.4 Y181.89
G1 F1125 X54.4 Y149.098 E92.53992
G0 F9000 X56 Y147.498
G1 F1125 X56 Y180.29 E96.20456
G0 F9000 X57.6 Y178.69
G1 F1125 X57.6 Y145.898 E99.86919
G0 F9000 X59.2 Y144.298
G1 F1125 X59.2 Y177.09 E103.53383
G0 F9000 X60.8 Y175.49
G1 F1125 X60.8 Y142.698 E107.19847
G0 F9000 X62.4 Y141.098
G1 F1125 X62.4 Y173.89 E110.86311
G0 F9000 X64 Y172.29
G1 F1125 X64 Y139.498 E114.52775
G0 F9000 X65.6 Y137.898
G1 F1125 X65.6 Y170.69 E118.19239
G0 F9000 X67.2 Y169.09
G1 F1125 X67.2 Y136.298 E121.85703
G0 F9000 X68.8 Y134.698
G1 F1125 X68.8 Y167.49 E125.52167
G0 F9000 X70.4 Y165.89
G1 F1125 X70.4 Y133.098 E129.18631
G0 F9000 X72 Y131.498
G1 F1125 X72 Y164.29 E132.85095
G0 F9000 X73.6 Y162.69
G1 F1125 X73.6 Y129.898 E136.51558
G0 F9000 X75.2 Y128.298
G1 F1125 X75.2 Y161.09 E140.18022
G0 F9000 X76.8 Y159.49
G1 F1125 X76.8 Y126.698 E143.84486
G0 F9000 X78.4 Y125.098
G1 F1125 X78.4 Y157.89 E147.5095
G0 F9000 X80 Y156.29
G1 F1125 X80 Y123.498 E151.17414
G0 F9000 X81.6 Y121.898
G1 F1125 X81.6 Y154.69 E154.83878
G0 F9000 X83.2 Y153.09
G1 F1125 X83.2 Y120.298 E158.50342
G0 F9000 X84.8 Y118.698
G1 F1125 X84.8 Y151.49 E162.16806
G0 F9000 X86.4 Y149.89
G1 F1125 X86.4 Y117.098 E165.8327
G0 F9000 X88 Y115.498
G1 F1125 X88 Y148.29 E169.49733
G0 F9000 X89.6 Y146.69
G1 F1125 X89.6 Y113.898 E173.16197
G0 F9000 X91.2 Y112.298
G1 F1125 X91.2 Y145.09 E176.82661
G0 F9000 X92.8 Y143.49
G1 F1125 X92.8 Y110.698 E180.49125
G0 F9000 X94.4 Y109.098
G1 F1125 X94.4 Y141.89 E184.15589
G0 F9000 X96 Y140.29
G1 F1125 X96 Y107.498 E187.82053
G0 F9000 X97.6 Y105.898
G1 F1125 X97.6 Y138.69 E191.48517
G0 F9000 X99.2 Y137.09
G1 F1125 X99.2 Y104.298 E195.14981
G0 F9000 X100.8 Y102.698
G1 F1125 X100.8 Y135.49 E198.81445
G0 F9000 X102.4 Y133.89
G1 F1125 X102.4 Y101.098 E202.47909
G0 F9000 X104 Y99.498
G1 F1125 X104 Y132.29 E206.14372
G0 F9000 X105.6 Y130.69
G1 F1125 X105.6 Y97.898 E209.80836
G0 F9000 X107.2 Y96.298
G1 F1125 X107.2 Y129.09 E213.473
G0 F9000 X108.8 Y127.49
G1 F1125 X108.8 Y94.698 E217.13764
G0 F9000 X110.4 Y93.098
G1 F1125 X110.4 Y125.89 E220.80228
G0 F9000 X112 Y124.29
G1 F1125 X112 Y91.498 E224.46692
G0 F9000 X113.6 Y89.898
G1 F1125 X113.6 Y122.69 E228.13156
G0 F9000 X115.2 Y121.09
G1 F1125 X115.2 Y88.298 E231.7962
G0 F9000 X116.8 Y86.698
G1 F1125 X116.8 Y119.49 E235.46084
G0 F9000 X118.4 Y117.889
G1 F1125 X118.4 Y85.098 E239.12536
G0 F9000 X120 Y83.498
G1 F1125 X120 Y116.289 E242.78989
G0 F9000 X121.6 Y114.689
G1 F1125 X121.6 Y81.898 E246.45442
G0 F9000 X123.2 Y80.298
G1 F1125 X123.2 Y113.089 E250.11894
G0 F9000 X124.8 Y111.489
G1 F1125 X124.8 Y78.698 E253.78347
G0 F9000 X126.4 Y77.098
G1 F1125 X126.4 Y109.889 E257.448
G0 F9000 X128 Y108.289
G1 F1125 X128 Y75.498 E261.11253
G0 F9000 X129.6 Y73.898
G1 F1125 X129.6 Y106.689 E264.77705
G0 F9000 X131.2 Y105.089
G1 F1125 X131.2 Y72.298 E268.44158
G0 F9000 X132.8 Y70.698
G1 F1125 X132.8 Y103.489 E272.10611
G0 F9000 X134.4 Y101.889
G1 F1125 X134.4 Y69.098 E275.77063
G0 F9000 X136 Y67.498
G1 F1125 X136 Y100.289 E279.43516
G0 F9000 X137.6 Y98.689
G1 F1125 X137.6 Y65.898 E283.09969
G0 F9000 X139.2 Y64.298
G1 F1125 X139.2 Y97.089 E286.76422
G0 F9000 X140.8 Y95.489
G1 F1125 X140.8 Y62.698 E290.42874
G0 F9000 X142.4 Y61.098
G1 F1125 X142.4 Y93.889 E294.09327
G0 F9000 X144 Y92.289
G1 F1125 X144 Y59.498 E297.7578
G0 F9000 X145.6 Y57.898
G1 F1125 X145.6 Y90.689 E301.42232
G0 F9000 X147.2 Y89.089
G1 F1125 X147.2 Y56.298 E305.08685
G0 F9000 X148.8 Y54.698
G1 F1125 X148.8 Y87.489 E308.75138
G0 F9000 X150.4 Y85.889
G1 F1125 X150.4 Y53.098 E312.41591
G0 F9000 X152 Y51.498
G1 F1125 X152 Y84.289 E316.08043
G0 F9000 X153.6 Y82.689
G1 F1125 X153.6 Y49.898 E319.74496
G0 F9000 X155.2 Y48.298
G1 F1125 X155.2 Y81.089 E323.40949
G0 F9000 X156.8 Y79.489
G1 F1125 X156.8 Y46.698 E327.07401
G0 F9000 X158.4 Y45.098
G1 F1125 X158.4 Y77.889 E330.73854
G0 F9000 X160 Y76.289
G1 F1125 X160 Y43.498 E334.40307
G0 F9000 X161.6 Y41.898
G1 F1125 X161.6 Y74.689 E338.0676
G0 F9000 X163.2 Y73.089
G1 F1125 X163.2 Y40.298 E341.73212
G0 F9000 X164.8 Y38.698
G1 F1125 X164.8 Y71.489 E345.39665
G0 F9000 X166.4 Y69.889
G1 F1125 X166.4 Y37.098 E349.06118
G0 F9000 X168 Y35.498
G1 F1125 X168 Y68.289 E352.72571
G0 F9000 X169.6 Y66.689
G1 F1125 X169.6 Y33.898 E356.39023
G0 F9000 X171.2 Y32.298
G1 F1125 X171.2 Y65.089 E360.05476
G0 F9000 X172.8 Y63.489
G1 F1125 X172.8 Y30.698 E363.71929
G0 F9000 X174.4 Y29.57
G1 F1125 X174.4 Y61.889 E367.33107
G0 F9000 X176 Y60.289
G1 F1125 X176 Y30.11 E370.70369
G0 F9000 X177.6 Y31.71
G1 F1125 X177.6 Y58.689 E373.7187
G0 F9000 X179.2 Y57.089
G1 F1125 X179.2 Y33.31 E376.3761
G0 F9000 X180.8 Y34.91
G1 F1125 X180.8 Y55.489 E378.67589
G0 F9000 X182.4 Y53.889
G1 F1125 X182.4 Y36.642 E380.60331
G0 F9000 X184 Y38.119
G1 F1125 X184 Y52.289 E382.18687
G0 F9000 X185.6 Y50.689
G1 F1125 X185.6 Y39.71 E383.41382
G0 F9000 X187.2 Y41.31
G1 F1125 X187.2 Y49.089 E384.28315
G0 F9000 X188.8 Y47.489
G1 F1125 X188.8 Y42.911 E384.79476
G0 F300 X188.8 Y42.911 Z0.756
G0 F9000 X189.785 Y46.501
;TIME_ELAPSED:201.937894
;LAYER:-5
;TYPE:SUPPORT
G1 F1125 X189.93 Y46.342 E384.82482
G1 X190.02 Y46.235 E384.84435
G1 X190.121 Y46.076 E384.87067
G1 X190.182 Y45.964 E384.88848
G1 X190.191 Y45.942 E384.8918
G1 X173.952 Y29.702 E388.1
G1 X174.06 Y29.653 E388.11656
G1 X174.198 Y29.613 E388.13664
G1 X174.384 Y29.571 E388.16327
G1 X174.513 Y29.56 E388.18136
G1 X174.684 Y29.552 E388.20527
G1 X174.882 Y29.562 E388.23297
G1 X174.966 Y29.569 E388.24474
G1 X175.148 Y29.6 E388.27053
G1 X175.258 Y29.632 E388.28653
G1 X175.321 Y29.657 E388.296
G1 X190.242 Y44.578 E391.24372
G0 F9000 X190.241 Y44.574
G1 F1125 X190.174 Y44.422 E391.26693
G1 X190.1 Y44.281 E391.28917
G1 X189.998 Y44.141 E391.31337
G1 X189.919 Y44.044 E391.33084
G1 X189.798 Y43.909 E391.35617
G1 X188.702 Y42.813 E391.57269
G1 X188.572 Y42.693 E391.5974
G1 X188.282 Y42.47 E391.64851
G1 X187.802 Y42.012 E391.74119
G1 X187.796 Y42.016 E391.74219
G1 X187.367 Y41.49 E391.83701
G1 X187.243 Y41.355 E391.86262
G1 X184.093 Y38.204 E392.48502
G1 X183.934 Y38.059 E392.51508
G1 X183.822 Y37.965 E392.5355
G1 X183.257 Y37.553 E392.63318
G1 X182.76 Y37.083 E392.72874
G1 X182.336 Y36.563 E392.82246
G1 X182.115 Y36.254 E392.87553
G1 X182.039 Y36.164 E392.89199
G1 X181.918 Y36.029 E392.91731
G1 X175.996 Y30.107 E394.08724
G1 X175.836 Y29.962 E394.1174
G1 X175.73 Y29.872 E394.13682
G1 X175.57 Y29.77 E394.16333
G1 X175.459 Y29.71 E394.18096
G1 X175.321 Y29.657 E394.20161
G1 F1500 E387.70161
G0 F9000 X176.112 Y28.853
G0 X176.726 Y29.331
G0 X190.731 Y43.353
G0 X191.126 Y43.946
G0 X191.375 Y44.725
G0 X191.378 Y45.615
G0 X191.137 Y46.438
G0 X190.574 Y47.218
G0 X189.785 Y46.501
G1 F1500 E394.20161
G1 F1125 X189.561 Y46.726 E394.24596
G1 X173.166 Y30.33 E397.48497
G1 X172.459 Y31.037 E397.62464
G1 X188.854 Y47.433 E400.86366
G1 X188.147 Y48.14 E401.00333
G1 X171.751 Y31.744 E404.24244
G1 X171.044 Y32.451 E404.38212
G1 X187.44 Y48.847 E407.62123
G1 X186.733 Y49.554 E407.7609
G1 X170.337 Y33.159 E410.99992
G1 X169.63 Y33.866 E411.13959
G1 X186.026 Y50.261 E414.3786
G1 X185.319 Y50.968 E414.51827
G1 X168.923 Y34.573 E417.75729
G1 X168.216 Y35.28 E417.89696
G1 X184.612 Y51.676 E421.13607
G1 X183.905 Y52.383 E421.27575
G1 X167.509 Y35.987 E424.51486
G1 X166.802 Y36.694 E424.65453
G1 X183.197 Y53.09 E427.89355
G1 X182.49 Y53.797 E428.03322
G1 X166.095 Y37.401 E431.27223
G1 X165.388 Y38.108 E431.4119
G1 X181.783 Y54.504 E434.65092
G1 X181.076 Y55.211 E434.79059
G1 X164.68 Y38.815 E438.0297
G1 X163.973 Y39.523 E438.16947
G1 X180.369 Y55.918 E441.40849
G1 X179.662 Y56.625 E441.54816
G1 X163.266 Y40.23 E444.78718
G1 X162.559 Y40.937 E444.92685
G1 X178.955 Y57.332 E448.16586
G1 X178.248 Y58.04 E448.30563
G1 X161.852 Y41.644 E451.54475
G1 X161.145 Y42.351 E451.68442
G1 X177.541 Y58.747 E454.92353
G1 X176.833 Y59.454 E455.0633
G1 X160.438 Y43.058 E458.30232
G1 X159.731 Y43.765 E458.44199
G1 X176.126 Y60.161 E461.681
G1 X175.419 Y60.868 E461.82068
G1 X159.024 Y44.472 E465.05969
G1 X158.316 Y45.179 E465.19946
G1 X174.712 Y61.575 E468.43857
G1 X174.005 Y62.282 E468.57825
G1 X157.609 Y45.886 E471.81736
G1 X156.902 Y46.594 E471.95713
G1 X173.298 Y62.989 E475.19615
G1 X172.591 Y63.696 E475.33582
G1 X156.195 Y47.301 E478.57483
G1 X155.488 Y48.008 E478.7145
G1 X171.884 Y64.403 E481.95352
G1 X171.177 Y65.111 E482.09329
G1 X154.781 Y48.715 E485.3324
G1 X154.074 Y49.422 E485.47207
G1 X170.47 Y65.818 E488.71119
G1 X169.762 Y66.525 E488.85096
G1 X153.367 Y50.129 E492.08997
G1 X152.66 Y50.836 E492.22964
G1 X169.055 Y67.232 E495.46866
G1 X168.348 Y67.939 E495.60833
G1 X151.953 Y51.543 E498.84735
G1 X151.245 Y52.25 E498.98712
G1 X167.641 Y68.646 E502.22623
G1 X166.934 Y69.353 E502.3659
G1 X150.538 Y52.958 E505.60492
G1 X149.831 Y53.665 E505.74459
G1 X166.227 Y70.06 E508.9836
G1 X165.52 Y70.767 E509.12327
G1 X149.124 Y54.372 E512.36229
G1 X148.417 Y55.079 E512.50196
G1 X164.813 Y71.475 E515.74107
G1 X164.106 Y72.182 E515.88075
G1 X147.71 Y55.786 E519.11986
G1 X147.003 Y56.493 E519.25953
G1 X163.398 Y72.889 E522.49855
G1 X162.691 Y73.596 E522.63822
G1 X146.296 Y57.2 E525.87723
G1 X145.589 Y57.907 E526.0169
G1 X161.984 Y74.303 E529.25592
G1 X161.277 Y75.01 E529.39559
G1 X144.881 Y58.614 E532.6347
G1 X144.174 Y59.322 E532.77448
G1 X160.57 Y75.717 E536.01349
G1 X159.863 Y76.424 E536.15316
G1 X143.467 Y60.029 E539.39218
G1 X142.76 Y60.736 E539.53185
G1 X159.156 Y77.131 E542.77086
G1 X158.449 Y77.839 E542.91063
G1 X142.053 Y61.443 E546.14975
G1 X141.346 Y62.15 E546.28942
G1 X157.742 Y78.546 E549.52853
G1 X157.034 Y79.253 E549.6683
G1 X140.639 Y62.857 E552.90732
G1 X139.932 Y63.564 E553.04699
G1 X156.327 Y79.96 E556.286
G1 X155.62 Y80.667 E556.42568
G1 X139.225 Y64.271 E559.66469
G1 X138.517 Y64.978 E559.80446
G1 X154.913 Y81.374 E563.04357
G1 X154.206 Y82.081 E563.18325
G1 X137.81 Y65.685 E566.42236
G1 X137.103 Y66.393 E566.56213
G1 X153.499 Y82.788 E569.80115
G1 X152.792 Y83.495 E569.94082
G1 X136.396 Y67.1 E573.17983
G1 X135.689 Y67.807 E573.3195
G1 X152.085 Y84.202 E576.55852
G1 X151.378 Y84.91 E576.69829
G1 X134.982 Y68.514 E579.9374
G1 X134.275 Y69.221 E580.07707
G1 X150.671 Y85.617 E583.31619
G1 X149.963 Y86.324 E583.45596
G1 X133.568 Y69.928 E586.69497
G1 X132.861 Y70.635 E586.83464
G1 X149.256 Y87.031 E590.07366
G1 X148.549 Y87.738 E590.21333
G1 X132.154 Y71.342 E593.45235
G1 X131.446 Y72.049 E593.59212
G1 X147.842 Y88.445 E596.83123
G1 X147.135 Y89.152 E596.9709
G1 X130.739 Y72.757 E600.20992
G1 X130.032 Y73.464 E600.34959
G1 X146.428 Y89.859 E603.5886
G1 X145.721 Y90.566 E603.72827
G1 X129.325 Y74.171 E606.96729
G1 X128.618 Y74.878 E607.10696
G1 X145.014 Y91.274 E610.34607
G1 X144.307 Y91.981 E610.48575
G1 X127.911 Y75.585 E613.72486
G1 X127.204 Y76.292 E613.86453
G1 X143.599 Y92.688 E617.10355
G1 X142.892 Y93.395 E617.24322
G1 X126.497 Y76.999 E620.48223
G1 X125.79 Y77.706 E620.6219
G1 X142.185 Y94.102 E623.86092
G1 X141.478 Y94.809 E624.00059
G1 X125.082 Y78.413 E627.2397
G1 X124.375 Y79.121 E627.37948
G1 X140.771 Y95.516 E630.61849
G1 X140.064 Y96.223 E630.75816
G1 X123.668 Y79.828 E633.99718
G1 X122.961 Y80.535 E634.13685
